X:1
T:Title
%%score ( 1 2 ) ( 3 4 )
L:1/8
Q:1/4=90
M:9/8
K:Eb
V:1 treble nm="Strings 1, Soprano"
V:2 treble 
V:3 bass nm="Strings 1, Bass"
V:4 bass 
V:1
 z3 z3 B,[B,E][B,F] | [EG]3- [EG]2 [EG] [EG][EF]E | [Ec]3 [EB]3 [B,E][B,F][EG] | %3
w: 1.~Go~ tell~ the~|world~ * that~ Je sus~ has~|suf fered,~ Died~ to~ re|
 [DF]3- [DF]2 [DF] [FA][EG][DF] | [EG]6 B,[B,E][B,F] | [EG]3- [EG]2 [EG] [EG][EF]E | %6
w: deem~ * the~ vil est~ of~|men;~ How~ He~ can~|save~ * and~ keep~ us~ for|
 [Ec]3 [EB]3 E[EF][EG] | [DF]3- [DF]2 [EG] [FA][EG][DF] | E6 EGB | e6 z3 | [GB]3 [EG]3 FFG | %11
w: ev er,~ Free~ from~ the~|pow'r~ * of~ Sa tan~ and~|sin.~ * * *|||
 A6 z3 | [EG]6 EGB | B6 z3 | [Ec]3 [Ec]3 edc | B6 z3 | E6 z3 |] %17
w: ||||||
V:2
 x9 | x9 | x9 | x9 | x9 | x9 | x9 | x9 | x9 | GAB G2 [Be] [ce][Bd][Ac] | x9 | %11
 FED FE[DA] [Ac][GB][FA] | x9 | EDE G2 [EG] [EG][EA][EB] | x9 | EEE E2 [EG] [DF][DG][DF] | x9 |] %17
V:3
 z3 z3 [E,G,][E,G,][E,A,] | [E,B,]3- [E,B,]2 [E,B,] [E,B,][E,A,][E,G,] | %2
 [E,A,]3 [E,G,]3 [E,G,][E,A,][E,B,] | [B,,B,]3- [B,,B,]2 [B,,B,] [B,,B,][B,,B,][B,,B,] | %4
 [E,B,]6 [E,G,][E,G,][E,A,] | [E,B,]3- [E,B,]2 [E,B,] [E,B,][E,A,][E,G,] | %6
 [E,A,]3 [E,G,]3 [E,G,][E,A,][E,B,] | [B,,B,]3- [B,,B,]2 [B,,B,] [B,,B,][B,,B,][B,,A,] | %8
 [E,G,]6 z3 | [E,B,][F,B,][G,B,] [E,B,]2 [G,E] [A,E][A,E][A,E] | [E,E]3 [E,B,]3 z3 | %11
 [B,,D][B,,C][B,,B,] DC[B,,B,] [B,,B,][C,B,][D,B,] | [E,B,]6 z3 | %13
 [E,G,][F,A,][G,B,] [E,E]2 [E,B,] [_D,B,][C,A,][B,,G,] | [A,,A,]3 [A,,A,]3 CB,A, | %15
 G,-[B,,G,-][B,,G,-] [B,,G,]2 [B,,B,] [B,,B,][B,,B,][B,,A,] | [E,G,]6 z3 |] %17
V:4
 x9 | x9 | x9 | x9 | x9 | x9 | x9 | x9 | x9 | x9 | x9 | z3 .B,,3 z3 | x9 | x9 | x9 | .B,,3 z3 z3 | %16
 x9 |] %17

